X: 16
T: Largo
C: From Symphony No. 9 "From the New World"
K: D
M: 4/4
L: 1/4
V: 1 name="Vln I" snm="" clef=treble
"D" !mp!(vF>A) A2 | (F>E) D2 | "Em" (EF) "D" (AF) | "A" E4 | "D" (F>A) A2 | "Bm" (F>E) D2 |
"G" (EF) "A" (ED) | "D" D4 |: "G" !mf!(vBd) d2 | "D" (cA) "G" B2 | (Bd) "D" (cA) | "G" B4 |
"G" (B>d) d2 | "D" (c>A) "G" B2 | (Bd) "D" (cA) | "G" B4 | "D" !mf!(vF>A) A2 | (F>E) D2 |
"D" (EF) (AF) | "A" E4 |1 "D" (uF>A) A2 | "Bm" (F>E) D2 | "G" (EF) "A" (ED) | "D" D4 :|2
"D" (uF>A) A2 | "Bm" (d>e) f2 | "G" (e>d) (eB) | "D" d4 | "Em" (ve>f) "A" e B | "D" d4 | D4 |]
V: 2 name="Vln II" snm="" clef=treble
L: 1/4
vD4 | D4 | D2 D2 | A4 | uD4 | D4 |
G2 G2 | D4 |: vD2 D D | D2 D D | D2 D2 | D4 |
D2 D D | D2 D D | D2 D2 | D4 | !mf!vA4 | A4 |
A2 A2 | A2 A2 |1 vD2 D2 | D2 D2 | G2 G2 | D D D D :|2
vA2 A A | D D D D | G G G2 | D D A A | vD D A2 | D4 | D4 |]

% 2018 Dec 1: for holiday craft fair,  SCG plays this and _Royal
% David's City_ on F-word horn,  both nominally in G,  actually in
% C.  For her father's benefit,  the following line transposes to C.
% Both are from the _Reader's Digets Merry XMas Songbook_.
%% transpose 5
